X:47
T:Invereys Strathspey
S:Petrie's Collection of Strathspey Reels and Country Dances &c., 1790
Z:Steve Wyrick <sjwyrick'at'gmail'dot'com>, 3/20/04
N:Petrie's First Collection, page 21
L:1/8
M:C
R:Strathspey
K:A
A   |A,AAc/d/ e<Ac>A|B,(BB>c)    d/c/B/A/ F2|A,AAc/d/ e<Ac>a|f2 e/d/c/B/ cAA    :|
c/d/|eaca     eacA  |dfce        fBBc/d/    |eaca     dacA  |dB e/f/e/d/ cAAc/d/ |
     eaca     dacA  |de/f/{f}e>c fBBc/B/    |A<Ec<A   d>fe>g|a<fTe>d     cAA    |]
